!!!!SEGMENT: pl-kk--kk-i-6--025-001_sabino-ippolito--missa-brevis-kyrie.krn
!!!cenid: 16xx:984
!!!COM: Sabino, Ippolito
!!!COM-rismID: pe30011894
!!!CDT: ~1550-1593
!!!CNT: Italian
!!!OPR: Missa brevis
!!!OTL: Kyrie
!!!OMV: 001
!!!PDT:
!!!AGN: Sacred; Mass
!!!SMS-siglum: PL-Kk
!!!SMS-shelfmark: Kk.I.6
!!!SMS-shelfwork: 025-001 M
!!!SMS-variant:
!!!SMS-altvar:
!!!NIFC-rismSourceID: 1001135513
!!!NIFC-rismChildID: 1001135985
!!!NIFC-islandoraID: pl-kk:1634
!!!URL-pdf-islandora: https://repozytorium.nifc.pl/islandora/object/pl-kk%3A1634/datastream/PDF/view
!!!URL-scan:https://polish.musicsources.pl/en/lokalizacje/galeria/rekopisy/6133/23 @EN{Scan on Polish Music Sources Website (Cantus)} @PL{Skany w portalu Dziedzictwo Muzyki Polskiej w otwartym dostępie (Cantus)}
!!!URL-scan: https://polish.musicsources.pl/en/lokalizacje/galeria/rekopisy/6133/126 @EN{Scan on Polish Music Sources Website (Tenor)} @PL{Skany w portalu Dziedzictwo Muzyki Polskiej w otwartym dostępie (Tenor)}
!!!URL-scan: https://polish.musicsources.pl/en/lokalizacje/galeria/rekopisy/6133/237 @EN{Scan on Polish Music Sources Website (Bassus)} @PL{Skany w portalu Dziedzictwo Muzyki Polskiej w otwartym dostępie (Bassus)}
!!!ONB-nifc: UWAGA: C (skan 0023-0027, s. 42-51), T (skan 0126-0131, s. 56-66), B (skan 0237-0241, s. 56-65) Części Mszy: 1 Kyrie, 2. Et in terra, 3. Patrem, 4. Sanctus, 5. Agnus Dei
!!!AIN: 1 empty 1 tenor 1 vox
!!!key:
**kern	**text	**kern	**text	**kern	**text
*part3	*part3	*part2	*part2	*part1	*part1
*staff3	*staff3	*staff2	*staff2	*staff1	*staff1
*Iempty	*	*Itenor	*	*Ivox	*
*I"[Baſsus.]	*	*I"[Tenor.]	*	*I"[Cantus.]	*
*I'[B]	*	*I'[T]	*	*I'[C]	*
*clefF4	*	*clefC4	*	*clefC4	*
*k[b-]	*	*k[b-]	*	*k[b-]	*
*F:	*	*F:	*	*F:	*
*M2/1	*	*M2/1	*	*M2/1	*
*met(C|)	*	*met(C|)	*	*met(C|)	*
=1-	=1-	=1-	=1-	=1-	=1-
!!LO:TX:t=P:problem:all\center:global
!!LO:TX:t=P:problem:4/center:global
!LO:TX:a:t=2	!	!	!	!	!
!LO:TX:t=Miſsa breuis Hippoliti Sabini.	!	!LO:TX:t=Miſsa breuis Hippoliti Sabini.	!	!LO:TX:t=Miſsa breuis. Hippoliti Sabini.	!
!LO:TX:t=P:problem=przed kluczem inicjał K	!	!LO:TX:t=P:problem=przed kluczem inicjał K	!	!LO:TX:t=P:problem=przed kluczem inicjał K	!
!LO:TX:t=P:problem=odnośnik do głosu Tenor	!	!	!	!	!
0r	.	1G	Ky-	0r	.
.	.	2A/	-ri-	.	.
!	!	!LO:N:acc=#	!	!	!
!	!	!LO:TX:b:t=P:problem=♯ below	!	!	!
.	.	2Bn\	-e	.	.
=2-	=2-	=2-	=2-	=2-	=2-
2r	.	2.c\	e-	0r	.
2C/	Ky-	.	.	.	.
.	.	4Bny\	.	.	.
2D/	-ri-	2A/	.	.	.
2E\	-e	2G/	.	.	.
=3-	=3-	=3-	=3-	=3-	=3-
1.F	e-	2A/	.	1r	.
.	.	1A	-ley-	.	.
.	.	.	.	2r	.
!	!	!	!	!LO:TX:t=P:problem=kreska pseudotaktowa	!
2E\	.	2G/	-son	2G/	Ky-
=4-	=4-	=4-	=4-	=4-	=4-
*	*	*	*ij	*	*
1D	-ley-	1F	Ky-	2A/	-ri-
!	!	!	!	!LO:TX:t=P:problem=kreska pseudotaktowa	!
!	!	!	!	!LO:N:acc=#	!
!	!	!	!	!LO:TX:b:t=P:problem=♯ below	!
.	.	.	.	2Bn\	-e
1C	-ſon	1G	-ri-	2.c\	.
!	!	!	!	!LO:TX:t=P:problem=kreska pseudotaktowa	!
.	.	.	.	4Bny\	.
=5-	=5-	=5-	=5-	=5-	=5-
2rBB	.	2.F/	-e	1A	e-
2FF/	ky-	.	.	.	.
.	.	4E/	.	.	.
*	*	*custos:C	*	*	*
1GG	-ri-	1D	.	2G/	-ley-
!	!	!	!	!LO:TX:t=P:problem=kreska pseudotaktowa	!
.	.	.	.	2G/	-ſon
=6-	=6-	=6-	=6-	=6-	=6-
!	!	!LO:LB:g=original	!	!	!
2AA/	-e	2C/	e-	2E/	ky-
4FF/	.	1F	-ley-	1A	-ri-
*custos:AA	*	*	*	*	*
4GG/	.	.	.	.	.
!LO:LB:g=original	!	!	!	!	!
4AA/	e-	.	.	.	.
4BB-/	.	.	.	.	.
*	*	*	*	*custos:A	*
!	!	!	!	!LO:TX:t=P:problem=kreska pseudotaktowa	!
2C/	-ley-	2E/	.	2G/	-e
=7-	=7-	=7-	=7-	=7-	=7-
!	!	!	!	!LO:LB:g=original	!
!	!	!	!	!LO:TX:t=P:problem= brak sylaby e-	!
2FF/	-son	1F	-son	2A/	ley-
*	*ij	*	*Xij	*	*
2BB-/	e-	.	.	1D,<	-son
2BB-/	-ley-	0r	.	.	.
*	*	*	*	*	*ij
2AA/	.	.	.	1F/	ky-
=8-	=8-	=8-	=8-	=8-	=8-
1GG	.	.	.	.	.
!	!	!	!	!LO:TX:t=P:problem=kreska pseudotaktowa	!
.	.	.	.	2E/	-rie
2FF,</	-son	2r	.	2.F/	e-
*	*Xij	*	*ij	*	*
*	*ij	*	*	*	*
2F\	e-	2A/	e-	.	.
.	.	.	.	4G/	.
=9-	=9-	=9-	=9-	=9-	=9-
2F\	-ley-	2A/	-ley-	4A/	.
.	.	.	.	4B-y\	.
2E\	.	2G/	.	1c	-ley-
1D	.	1F	.	.	.
.	.	.	.	2B-\	.
=10-	=10-	=10-	=10-	=10-	=10-
0C;	-son	0G;<	-son	0c	-son
*	*Xij	*	*Xij	*	*Xij
=11-	=11-	=11-	=11-	=11-	=11-
*M2/1	*	*M2/1	*	*M2/1	*
*met(C|)	*	*met(C|)	*	*met(C|)	*
!LO:LB:g=original	!	!	!	!LO:LB:g=original	!
!LO:TX:t=P:problem=przed kluczem inicjał C	!	!LO:TX:t=P:problem=przed kluczem inicjał C	!	!LO:TX:t=P:problem=przed kluczem inicjał C	!
!LO:TX:t=P:problem=odnośnik do głosu Cantus	!	!	!	!	!
0r	.	1rA	.	0G	CHri-
.	.	0C	CHri-	.	.
=12-	=12-	=12-	=12-	=12-	=12-
0r	.	.	.	2.c\	-ſte
!	!	!	!	!LO:TX:t=P:problem=kreska pseudotaktowa	!
.	.	.	.	4B-\	.
.	.	1.F	-ſte	2A/	.
.	.	.	.	4F/	e-
!	!	!	!	!LO:TX:t=P:problem=kreska pseudotaktowa	!
.	.	.	.	4G/	.
=13-	=13-	=13-	=13-	=13-	=13-
0r	.	.	.	4A/	.
.	.	.	.	4B-\	.
.	.	2E/	.	1c	.
.	.	1D	.	.	.
!	!	!	!	!LO:TX:t=P:problem=kreska pseudotaktowa	!
.	.	.	.	2B-\	.
=14-	=14-	=14-	=14-	=14-	=14-
1r	.	2C/	.	2c\	-ley-
.	.	1c	.	2D/	-ſon
0GG	CHri-	.	.	0G	Chri-
!	!	!LO:TX:b:t=P:problem=♯ below	!	!	!
!	!	!LO:N:acc=#	!	!	!
.	.	4Bn\	.	.	.
.	.	4A/	.	.	.
=15-	=15-	=15-	=15-	=15-	=15-
!	!	!LO:TX:b:t=P:problem=♯ below	!	!	!
!	!	!LO:N:acc=#	!	!	!
!	!	!LO:TX:t=P:problem= brak sylaby e-	!	!	!
.	.	1Bn	ley-	.	.
1.C	-ſte	2c\	-ſon	2.G/	-ſte
.	.	4C/	e-	.	.
*	*	*	*	*custos:E	*
.	.	4D/	.	4F/	.
=16-	=16-	=16-	=16-	=16-	=16-
!	!	!	!	!LO:LB:g=original	!
.	.	4E/	.	2E/	.
.	.	4F/	.	.	.
2BB-/	e-	1G	.	2D/	.
!	!	!	!	!LO:TX:t=P:problem=kreska pseudotaktowa	!
1AA	-ley-	.	.	1C	.
.	.	2F/	-ley-	.	.
=17-	=17-	=17-	=17-	=17-	=17-
2GG,</	-son	2G/	.	2D/	e-
*	*	*custos:F	*	*	*
2GG/	Chri-	2D/	-ſon	1d	.
*	*	*	*ij	*	*
!	!	!LO:TX:b:t=P:problem=♯ below	!	!	!
2D/	-ſte	2F#X/	Chri-	.	.
2E-X\	e-	2.G/	-ſte	2c\	-ley-
=18-	=18-	=18-	=18-	=18-	=18-
1D	-ley-	.	.	1d	.
!	!	!LO:TX:b:t=P:problem=♯ below	!	!	!
.	.	8F#X/L	.	.	.
.	.	8E/J	.	.	.
.	.	2F#y/	.	.	.
1GG	-son	2G/	e-	1d	-ſon
.	.	1G/	-ley-	.	.
=19-	=19-	=19-	=19-	=19-	=19-
*	*ij	*	*	*	*
1C	Chri-	.	.	1rA	.
.	.	2A/	.	.	.
!	!	!LO:TX:b:t=P:problem=♯ below	!	!	!
!	!	!LO:N:acc=#	!	!	!
2D/	-ſte	2Bn\	-ſon	2rF	.
*	*	*	*Xij	*	*ij
*	*	*	*ij	*	*
!	!	!	!	!LO:TX:t=P:problem=kreska pseudotaktowa	!
2Eny\	e-	2.c\	CHri	2G/	Chri-
=20-	=20-	=20-	=20-	=20-	=20-
2.F\	-ley-	.	.	1A	-ſte
.	.	4B-y\	.	.	.
.	.	4A/	.	.	.
4E\	.	4G/	.	.	.
2D/	.	2Fny/	.	2B-\	.
2C/	.	2G/	.	2c\	.
=21-	=21-	=21-	=21-	=21-	=21-
2FF,</	-ſon	2F/	-ſte	2A/	.
*	*Xij	*	*	*	*
*	*ij	*	*	*	*
1BB-	e-	1F	e-	1B-	e-
2FF/	-ley-	2F/	-ley-	2A/	-ley-
=22-	=22-	=22-	=22-	=22-	=22-
!LO:N:vis=2	!	!	!	!	!
1GG	.	1D	.	1G	.
0C	-ſon	0E	-ſon	0G	-ſon
*	*Xij	*	*Xij	*	*Xij
=23-	=23-	=23-	=23-	=23-	=23-
.	.	.	.	.	.
1ryy	.	1ryy	.	1ryy	.
=24-	=24-	=24-	=24-	=24-	=24-
*M2/1	*	*M2/1	*	*M2/1	*
*met(C|)	*	*met(C|)	*	*met(C|)	*
!LO:TX:a:t=4	!	!	!	!LO:LB:g=original	!
!LO:TX:t=P:problem=przed kluczem inicjał K	!	!LO:TX:t=P:problem=przed kluczem inicjał K	!	!LO:TX:t=P:problem=przed kluczem inicjał K	!
!LO:TX:t=P:problem=odnośnik do głosu Cantus	!	!	!	!	!
0r	.	0r	.	1r	.
.	.	.	.	1G	Ky-
=25-	=25-	=25-	=25-	=25-	=25-
0r	.	1r	.	2A/	-ri-
!	!	!	!	!LO:TX:t=P:problem=kreska pseudotaktowa	!
.	.	.	.	2B-\	-e
.	.	2r	.	1c	.
.	.	2C/	Ky-	.	.
=26-	=26-	=26-	=26-	=26-	=26-
!	!	!	!	!LO:TX:t=P:problem=kreska pseudotaktowa	!
1GG	Ky-	2D/	-ri-	1B-	.
.	.	2E/	-e	.	.
2AA/	-ri-	2F/	e-	2A/	e-
!LO:TX:b:t=P:problem=# below	!	!	!	!	!
!LO:N:acc=#	!	!	!	!	!
2BBn/	-e	2D/	-ley-	2.G/	.
=27-	=27-	=27-	=27-	=27-	=27-
2.C/	e-	2E/	-ſon	.	.
.	.	.	.	4F/	.
.	.	4C/	e-	4E/	.
!	!	!	!	!LO:TX:t=P:problem=kreska pseudotaktowa	!
4BB-ny/	.	4D/	.	4D/	.
2AA/	.	4E/	.	2C/	.
.	.	4F/	.	.	.
!	!	!	!	!LO:TX:t=P:problem=kreska pseudotaktowa	!
2GG/	.	1G/	.	2D/	.
=28-	=28-	=28-	=28-	=28-	=28-
1AA	-ley-	.	.	1C	-ley-
.	.	2F/	-ley-	.	.
1GG	-son	2G/	-ſon	2D,</	-ſon
*	*	*	*	*custos:F	*
.	.	1D/	e-	2G/	Chri-
=29-	=29-	=29-	=29-	=29-	=29-
!	!	!	!	!LO:TX:b:t=P:problem=# below	!
!	!	!	!	!LO:PB:g=original	!
0r	.	.	.	2F#X/	-ſte
.	.	2E-X/	-ley-	1G	e-
*	*	*custos:G	*	*	*
.	.	1D	-ſon	.	.
!	!	!	!	!LO:TX:b:t=P:problem=# below	!
.	.	.	.	2F#X/	-ley-
=30-	=30-	=30-	=30-	=30-	=30-
!	!	!LO:LB:g=original	!	!	!
2rBB	.	2rF	.	1G	-ſon
2C/	Ky-	2G/	Ky-	.	.
!LO:TX:b:t=P:problem=# below	!	!	!	!	!
!LO:N:acc=#	!	!	!	!	!
2BBn/	-ri-	2G/	-ri-	1r	.
*custos:FF	*	*	*	*	*
2C/	-e	2G/	-e	.	.
=31-	=31-	=31-	=31-	=31-	=31-
!LO:PB:g=original	!	!	!	!	!
!LO:TX:t=P:problem= brak sylaby e-	!	!	!	!	!
1FF	ley-	1A	e-	2r	.
.	.	.	.	1c	ky-
2C,</	-son	2G/	-ley-	.	.
*	*ij	*	*	*	*
!	!	!	!	!LO:TX:t=P:problem=kreska pseudotaktowa	!
1C/	ky-	1G/	-ſon	2c\	-ri-
=32-	=32-	=32-	=32-	=32-	=32-
.	.	.	.	2c\	-e
*	*	*	*ij	*	*
2GG/	-ri-	2G/	Ky-	2.B-\	.
2BB-y/	-e	2F/	-ri-	.	.
.	.	.	.	4A/	.
2C/	e-	2Eny/	-e	4G/	.
!	!	!	!	!LO:TX:t=P:problem=kreska pseudotaktowa	!
.	.	.	.	4Fny/	.
=33-	=33-	=33-	=33-	=33-	=33-
1GG	-ley-	1D	e-	1G	.
2C/	.	2C/	-ley-	2G/	.
!	!	!	!	!LO:TX:t=P:problem=kreska pseudotaktowa	!
2FF,</	-son	2F/	-ſon	2A/	.
*	*Xij	*	*	*	*
=34-	=34-	=34-	=34-	=34-	=34-
*	*ij	*	*	*	*
2FF/	e-	2F/	e-	2A/	.
2C/	-ley-	2E/	-ley-	2G/	e-
1FF	.	1A	.	1F	-ley-
=35-	=35-	=35-	=35-	=35-	=35-
0C	-ſon	0G	-ſon	0E	-ſon
*	*Xij	*	*Xij	*	*
!LO:PB:g=original	!	!LO:PB:g=original	!	!LO:LB:g=original	!
=-	=-	=-	=-	=-	=-
*-	*-	*-	*-	*-	*-
!!!system-decoration: [(s1,s2,s3)]
!!!RDF**kern: < = below
!!!RDF**kern: > = above
!!!ENC: Marta Chmielewska
!!!END: 2021-03-22
!!!ENC: Tomasz Grochalski
!!!END: 2021-03-07
!!!YEC: Copyright 2022 Narodowy Instytut Fryderyka Chopina (https://polishscores.org)
!!!YEM: License CC-BY-4.0 (https://creativecommons.org/licenses/by/4.0)
